X: 11712
T: The SILLER PENNY
C: James Ramsay.--Copyright.
Q: "Moderate."
%R: reel
B: W. Hamilton "Universal Tune-Book" Vol. 1 Glasgow 1844 p.171 #2
S: http://imslp.org/wiki/Hamilton's_Universal_Tune-Book_(Various)
Z: 2016 John Chambers <jc:trillian.mit.edu>
M: 2/4
L: 1/16
K: Am
% - - - - - - - - - - - - - - - - - - - - - - - - -
|:\
A3c E4 | A3c E4 | A3B cBA^G | A2z2 e2z2 |\
c3B A4 | c3B A4 | cBcd edcB | c2z2 A2z2 :|
|:\
cBcd ede^f | g3e c4 | A^GAB cBcd | e2z2 E2z2 |\
cBcd ede^f | ag=fe gfed | fedc edcB | c2z2 A2z2 :|
|:\
A^GAB c2 zE | A^GAB c2 zE | A^GAB cBcd | e2z2 E2z2 |\
A^GAB cBcd | edef edce | fedc edcB | c2z2 A2z2 :|
% - - - - - - - - - - - - - - - - - - - - - - - - -

%%sep 1 1 500
%%sep 1 1 500

